packages/amis-ui/src/icons/edit.svg

<?xml version="1.0" encoding="UTF-8"?>
<svg  viewBox="0 0 16 16" version="1.1" xmlns="http://www.w3.org/2000/svg" xmlns:xlink="http://www.w3.org/1999/xlink">
     
    <g  stroke="none" stroke-width="1" fill-rule="evenodd">
        <path d="M8.491,1.5004 L8.491,2.5004 L2.5,2.5004 L2.5,13.5004 L13.5,13.5004 L13.5,7.5324 L14.5,7.5324 L14.5,14.5004 L1.5,14.5004 L1.5,1.5004 L8.491,1.5004 Z M13.7455,1.6217 L14.4525,2.3297 L8.0885,8.6937 L7.3815,7.9867 L13.7455,1.6217 Z"></path>
    </g>
</svg>

<svg viewBox="0 0 16 16" xmlns="http://www.w3.org/2000/svg"><path d="M8.491 1.5v1H2.5v11h11V7.532h1V14.5h-13v-13h6.991Zm5.255.122.707.708-6.364 6.364-.708-.707 6.364-6.365Z" fill-rule="evenodd"/></svg>
